X:10
T:Prelude in D minor (BWV 851)
C:Bach, J.S.
M:4/4
L:1/16
Q:1/4=66
K:Dmin
|:DFAD DFAD|ECAC ECAC|DFAD DFAD|EGBE EGBE|
DFAD DFAD|ECAC ECAC|AFDF AFDF|D8:|

